packages/tokens/icons/leaf2/size32Px.svg

<svg viewBox="0 0 32 32" fill="none" xmlns="http://www.w3.org/2000/svg" width="1em" height="1em"><path d="M18.7843 24.5C21.8387 24.5 24.5 22.3315 24.5 18C24.5 12.2452 18.6689 5.11691 16.6115 2.78089C16.2312 2.34916 15.5789 2.35312 15.2037 2.78921C13.1863 5.13378 7.5 12.252 7.5 18C7.5 22.3315 9.96773 24.5 13.0221 24.5" stroke="currentColor" stroke-linecap="round"/><path d="M16 8.25L16 29.5M13 12.0001L16 15.0001L19 12.0001M11.4999 17L15.9999 21.5L20.4999 17" stroke="currentColor" stroke-linecap="round"/></svg>

<svg xmlns="http://www.w3.org/2000/svg" fill="none" viewBox="0 0 32 32" width="1em" height="1em"><path stroke="currentColor" stroke-linecap="round" d="M18.784 24.5c3.055 0 5.716-2.169 5.716-6.5 0-5.755-5.831-12.883-7.889-15.22a.924.924 0 0 0-1.407.01C13.186 5.133 7.5 12.251 7.5 18c0 4.331 2.468 6.5 5.522 6.5"/><path stroke="currentColor" stroke-linecap="round" d="M16 8.25V29.5M13 12l3 3 3-3m-7.5 5 4.5 4.5 4.5-4.5"/></svg>
